X: 36100
T: School Reels
R: reel
M: 4/4
K: Gmajor
(3DEF|:G2 DG BGDG|ABAG FDEF|G2 DG BGDG|ABce dBcA|
G2 DG BGDG|ABAG FDAB|cedB cBAG|1 D2 F2 G2 (3DEF:|2 D2 F2 G2 Bc||
|:d2 ef g2 fe|dBGB A2 Bc|d2 ef g2 fe|fgfe d2 Bc|
d2 ef g2 fe|dBGB A2 GA|BedB cBAG|1 D2 F2 G2 Bc:|2 F2 A2 G3A||
|:B3G c3A|B3G EFGA|B2 GB c2 AB|AGFE D2 GA|
B3G c3A|B3G EFGA|BdBG AcAF|1 GABc dBAc:|2 G2 B2 G2 BA||
|:G2 g2 abag|f2 ag fagf|e3d efgf|e3d efed|
B2 g2 abag|f2 ag fagf|edBG AcAF|1 GABc dcBA:|2 G2 B2 G2 FE||
|:D2 FG E2 GA|BAGB d2 cB|A2 cA E2 AG|FGEF DB,CB,|
D2 FG E2 GA|BAGB d2 cB|A2 A2 GFEF|1 G2 B2 G2 FE:|2 DEFG AcBA||
|:G2 dG eGdG|ABcd edcB|A2 eA fAeA|Bcdc BAGE|
G2 dG eGdG|ABcd edcB|A2 A2 GFEF|1 DEFG AcBA:|2 G2 d2 g4||

